!!! OTL: Berkowitz315
!!! Chapter: 1
!!! Section: III
!!! Page: 76
!!! Mode: 
!!! Encoder: DJB
**kern
*staff1
*I"Piano
=1-
*clefF4
*k[f#]
*e:
*M6/8
8r
8r
8r
8r
8r
8BB/
=2
8E\L
8F#\
8G\J
8A\L
8B\
8A\J
=3
8G\L
8F#\
8D#\J
8C/L
8BB/
8BB/J
=4
8A\L
8F#\
8D#\J
8B\L
8G\
8E\J
=5
8C\L
8A\
8G\J
4F#\
8D#\
=6
8E\L
8G\
8B\J
4e\
8d\
=7
!!linebreak:original
8c\L
8B\
8A\J
8G\L
8F#\
8G\J
=8
8C\L
8B\
8A\J
8BB\L
8A\
8G\J
=9
8F#\L
8E\
8D#\J
4E\
8r
==
*-
